X: 31801
T: Patsy Geary's
R: jig
M: 6/8
K: Gmajor
|:D|B2 B BcA|BGE G2 D|GAF GB/c/d|ecA AA/B/c|
B^AB Bc=A|BGE G3|BB/c/d ecA|AGF G2:|
|:D|AA/A/A ABA|GED D2 D|E^DE c2 A|BGE EE/F/G|
A^GA Ac/B/A|GED D3|BB/c/d ecA|AGF G2:|

